X:1
T: Cronin's Rambles
C:
R:Reel
Q: 232
K:A
M:4/4
L:1/8
|:E2|AG AB cA Bc|dc df ed ((3efg)|ae cA df ed|cA BG EF GE|
AG AB cA Bc|dc df ed ((3efg)|ae cA dB GB|A2 A2 A2:|
|:A2|Ac eg ae ce|ge fd ef ge|ae cA df ed|cA BG EF GB|
Ac eg ae ce|gf df e2 ((3efg)|ae cA dB GB|A2 A2 A2:|
